packages/foundations/assets/icons/functional/images/business & payment/cash_20.svg

<svg width="20" height="20" viewBox="0 0 20 20" fill="none" xmlns="http://www.w3.org/2000/svg">
<g clip-path="url(#clip0_184_9)">
<path fill-rule="evenodd" clip-rule="evenodd" d="M12.5429 10C14.2749 10.016 15.9549 10.65 17.2259 11.816L17.7119 12.293C17.8913 12.473 17.9954 12.7144 18.0031 12.9684C18.0109 13.2223 17.9217 13.4697 17.7537 13.6603C17.5856 13.8508 17.3514 13.9703 17.0984 13.9944C16.8455 14.0185 16.5929 13.9454 16.3919 13.79L16.0319 13.441C15.1679 12.577 14.0019 12.027 12.8049 11.986C11.6079 11.946 11.3409 11.99 10.9989 11.986C10.6559 11.984 10.3509 12.193 10.2689 12.526C10.2449 12.626 10.3079 12.736 10.4359 12.758C10.5219 12.773 11.4089 12.855 13.0979 13.005C13.3619 13.0296 13.6053 13.158 13.7747 13.362C13.944 13.5661 14.0254 13.829 14.0009 14.093C13.9539 14.603 13.5459 15.03 13.0299 15C12.5139 14.971 10.7479 14.802 10.2519 14.75C9.75491 14.698 9.32091 14.541 8.79891 14.376C8.45091 14.266 7.35491 13.924 5.50891 13.35C5.24594 13.2688 4.96468 13.2683 4.70141 13.3485C4.43814 13.4287 4.20495 13.586 4.03192 13.8C3.97392 13.87 3.97692 14.006 4.14392 14.071L7.98391 15.541C8.68055 15.8066 9.41514 15.9592 10.1599 15.993L17.0049 16C17.2701 16 17.5245 16.1054 17.712 16.2929C17.8996 16.4804 18.0049 16.7348 18.0049 17C18.0049 17.513 17.5789 18 17.0049 18H10.4789C9.50492 18 8.38892 17.823 7.61491 17.532C7.09992 17.338 5.69092 16.804 3.38892 15.928C3.06919 15.806 2.78292 15.61 2.55356 15.356C2.3242 15.1021 2.15828 14.7974 2.0694 14.4669C1.98051 14.1364 1.97119 13.7896 2.0422 13.4549C2.11321 13.1201 2.26253 12.8069 2.47792 12.541C2.88023 12.0439 3.41542 11.6713 4.02121 11.4665C4.627 11.2617 5.2785 11.2331 5.89992 11.384L8.30991 12.123C8.62691 10.876 9.62191 10.063 10.8199 10H12.5429ZM6.63292 7.769C6.91691 7.769 7.68292 7.594 7.74892 7.581C7.96592 7.536 8.23092 7.678 8.32092 7.913C8.49592 8.367 8.09691 8.602 7.97691 8.668C7.85791 8.735 7.52692 8.85 7.25291 8.91C6.97791 8.97 6.70191 9 6.42391 9C5.82392 9 5.33391 8.915 4.95091 8.744C4.57993 8.58306 4.26868 8.30994 4.06091 7.963C3.84891 7.613 3.70191 7.156 3.62091 6.594H2.99492V5.798H3.59191V5.173H2.99492V4.378H3.61992C3.72792 3.803 3.89192 3.343 4.11292 2.999C4.33292 2.655 4.63691 2.403 5.02291 2.242C5.40591 2.08 5.90192 2 6.50792 2C7.00291 2 7.45091 2.065 7.84992 2.194C8.11591 2.285 8.38292 2.562 8.28992 2.918C8.16292 3.343 7.74492 3.402 7.45492 3.326C7.17997 3.25199 6.89664 3.21367 6.61192 3.212C6.18292 3.212 5.87392 3.302 5.68392 3.482C5.49392 3.662 5.36191 3.961 5.28591 4.378H7.03892V5.173H5.26791V5.798H7.03992V6.594H5.28691C5.34391 7.036 5.46991 7.342 5.66691 7.513C5.86191 7.683 6.18492 7.769 6.63292 7.769Z" fill="#1A1C1F"/>
</g>
<defs>
<clipPath id="clip0_184_9">
<rect width="20" height="20" fill="white"/>
</clipPath>
</defs>
</svg>

<svg xmlns="http://www.w3.org/2000/svg" width="20" height="20" fill="none"><g clip-path="url(#a)"><path fill="#1A1C1F" fill-rule="evenodd" d="M12.543 10c1.732.016 3.412.65 4.683 1.816l.486.477a1 1 0 0 1-1.32 1.497l-.36-.349c-.864-.864-2.03-1.414-3.227-1.455-1.197-.04-1.464.004-1.806 0-.343-.002-.648.207-.73.54-.024.1.039.21.167.232q.129.022 2.662.247A1 1 0 0 1 14 14.093c-.047.51-.455.937-.971.907-.516-.029-2.282-.198-2.778-.25-.497-.052-.931-.209-1.453-.374q-.522-.165-3.29-1.026a1.38 1.38 0 0 0-1.477.45c-.058.07-.055.206.112.271l3.84 1.47a7 7 0 0 0 2.176.452l6.845.007a1 1 0 0 1 1 1c0 .513-.426 1-1 1h-6.526c-.974 0-2.09-.177-2.864-.468q-.773-.29-4.226-1.604a2.166 2.166 0 0 1-.911-3.387A3.38 3.38 0 0 1 5.9 11.384l2.41.739c.317-1.247 1.312-2.06 2.51-2.123zm-5.91-2.231c.284 0 1.05-.175 1.116-.188.217-.045.482.097.572.332.175.454-.224.689-.344.755s-.45.182-.724.242Q6.84 9 6.423 9q-.9 0-1.472-.256a1.94 1.94 0 0 1-.89-.781q-.319-.526-.44-1.369h-.626v-.796h.597v-.625h-.597v-.795h.625q.162-.863.493-1.379t.91-.757Q5.598 2 6.508 2q.743 0 1.342.194c.266.091.533.368.44.724-.127.425-.545.484-.835.408a3.3 3.3 0 0 0-.843-.114q-.644 0-.928.27t-.398.896h1.753v.795H5.268v.625H7.04v.796H5.287q.085.663.38.919.293.256.966.256" clip-rule="evenodd"/></g><defs><clipPath id="a"><path fill="#fff" d="M0 0h20v20H0z"/></clipPath></defs></svg>
